src/assets/images/loans.svg

<svg width="18" height="20" viewBox="0 0 18 20" fill="none" xmlns="http://www.w3.org/2000/svg">
<path d="M0.96167 0.400011V16.4118H7.31567V15.2118H2.16167V1.60001H8.19987V5.95781H12.3155V9.65381H13.5155V4.92561L9.08807 0.399811L0.96167 0.400011ZM9.39987 2.43601L11.6741 4.75781H9.39987V2.43601Z" fill="#F55F44"/>
<path d="M3.3938 8.35242H10.604V9.55242H3.3938V8.35242Z" fill="#F55F44"/>
<path d="M3.3938 10.9524H7.004V12.1524H3.3938V10.9524Z" fill="#F55F44"/>
<path d="M17.0381 17.9422V12.4C17.0381 10.7719 13.1921 10.7258 12.7537 10.7258C12.3154 10.7258 8.47168 10.7758 8.47168 12.4V17.9796C8.47246 18.0406 8.48262 18.1007 8.50215 18.1577C8.84355 19.5601 12.3381 19.5999 12.7561 19.5999C13.1741 19.5999 16.9561 19.5523 17.0357 17.9741C17.0357 17.9656 17.0381 17.9562 17.0381 17.9421L17.0381 17.9422ZM15.8381 14.1422C15.5998 14.3618 14.4998 14.7203 12.7561 14.7203C11.0115 14.7203 9.92008 14.3617 9.67168 14.15V13.6344C10.8396 14.0602 12.4717 14.0782 12.7561 14.0782C13.0405 14.0782 14.6717 14.0578 15.8405 13.6344L15.8381 14.1422ZM9.67168 15.4758C10.8396 15.9016 12.4717 15.9196 12.7561 15.9196C13.0405 15.9196 14.6717 15.8993 15.8405 15.4758L15.8397 16C15.592 16.2118 14.4999 16.5704 12.7553 16.5704C11.0115 16.5704 9.9201 16.2 9.6717 16L9.67168 15.4758ZM12.7561 11.9298C14.2561 11.9298 15.2741 12.1954 15.6881 12.404C15.274 12.604 14.256 12.8783 12.7561 12.8783C11.2561 12.8783 10.2357 12.6142 9.82408 12.4001C10.2358 12.2001 11.2538 11.9298 12.7561 11.9298ZM9.67168 17.8344V17.318C10.8396 17.7438 12.4717 17.7618 12.7561 17.7618C13.0405 17.7618 14.6717 17.7415 15.8405 17.318V17.8336C15.5897 18.0461 14.4999 18.4 12.7561 18.4C11.0115 18.4 9.92008 18.0461 9.67168 17.8344Z" fill="#F55F44"/>
</svg>

<svg xmlns="http://www.w3.org/2000/svg" width="18" height="20" fill="none"><path fill="#F55F44" d="M.962.4v16.012h6.354v-1.2H2.162V1.6H8.2v4.358h4.116v3.696h1.2V4.926L9.087.4H.962ZM9.4 2.436l2.274 2.322H9.4V2.436Z"/><path fill="#F55F44" d="M3.394 8.352h7.21v1.2h-7.21v-1.2Zm0 2.6h3.61v1.2h-3.61v-1.2Zm13.644 6.99V12.4c0-1.628-3.846-1.674-4.284-1.674-.439 0-4.282.05-4.282 1.674v5.58c0 .06.01.12.03.178.342 1.402 3.836 1.442 4.254 1.442.418 0 4.2-.048 4.28-1.626l.002-.032Zm-1.2-3.8c-.238.22-1.338.578-3.082.578-1.745 0-2.836-.358-3.084-.57v-.516c1.168.426 2.8.444 3.084.444.284 0 1.916-.02 3.085-.444l-.003.508Zm-6.166 1.334c1.168.426 2.8.444 3.084.444.284 0 1.916-.02 3.085-.444L15.84 16c-.248.212-1.34.57-3.085.57-1.744 0-2.835-.37-3.083-.57v-.524Zm3.084-3.546c1.5 0 2.518.265 2.932.474-.414.2-1.432.474-2.932.474s-2.52-.264-2.932-.478c.412-.2 1.43-.47 2.932-.47Zm-3.084 5.904v-.516c1.168.426 2.8.444 3.084.444.284 0 1.916-.02 3.085-.444v.516c-.251.212-1.341.566-3.085.566-1.745 0-2.836-.354-3.084-.566Z"/></svg>
